X:1
T:We Are Pilgrims of a Day
T:Robert Lowry, 1887
T:We Are Pilgrims of a Day
T:Public Domain
T:Public Domain
C:Robert Lowry, 1887
Z:Public Domain
%%score ( 1 2 ) ( 3 4 )
L:1/8
M:6/8
K:G
V:1 treble 
V:2 treble 
V:3 bass 
V:4 bass 
V:1
 [B,D]2 [B,D] [B,D]2 [B,D] | (DG)[CA] [DB]3 | [DA]2 [DA] [DA]3 | [DB]2 [DB] [DB]3 | %4
w: 1.~We are pil- grims|of * a day,|ward bound, home-|ward bound; Sing-|
w: 2.~We are hap- py|in * the Lord,|ing on, trav’l-|ing on; Trust-|
w: 3.~Sin and sor- row|here * be- low,|will end, soon|will end; In|
w: 4.~Work- ing all the|way * a- long,|will come, rest|will come; Light-|
 [B,D]2 [B,D] [B,D]2 [B,D] | ([B,D][DG])[DA] (D2 G) | [FA]2 [FA] [FB]2 [FA] | G6 || %8
w: ing on our cheer-|ful * way, We *|home- ward bound. *||
w: ing in His ho-|ly * Word, We *|trav’l- ing on. On-|ward,|
w: the land to which|we * go, Toil *|care will end. *||
w: en work with pray’r|and * song, Bless- *|rest will come. *||
"^Refrain" [Fd]3 [FA]3 | ([Ac][GB])[FA] G3 | [FA]2 [FA] [FA]2 [FA] | [GB]3 [Gd]3 | [Fd]3 [FA]3 | %13
w: |||||
w: ward still,|O * ye hope-|pil- grims; For- ward,|fear no|ill, yon-|
w: |||||
w: |||||
 ([Ac][GB])[FA] G3 | [GB]2 [GB] (^cB)[Gc] | [Fd]3- [Fd]2 [Ac] | [GB]2 [GB] [GB]2 [DA] | %17
w: ||||
w: der * is our|We jour- ney, * hand|hand, * To|Ca- naan’s hap- py|
w: ||||
w: ||||
 [DG]3- [DG]2 [DG] | [Dc]2 [Dc] [Dc]2 [DB] | [DA]3- [DA]2 [DA] | [DB]2 [DB] [DB]2 [=Fd] | %21
w: ||||
w: land; * O|come, ye friends and|neigh- * bors,|And join the pil-|
w: ||||
w: ||||
 [Ed] [Ec]3 z [EA] | [DG]2 [DG] [GB]2 [FA] | G3- G2 |] %24
w: |||
w: grim band. *|||
w: |||
w: |||
V:2
 x6 | B,2 x4 | x6 | x6 | x6 | x3 B3 | x6 | G6 || x6 | x3 G3 | x6 | x6 | x6 | x3 G3 | x3 G2 x | x6 | %16
w: |Home-||||are|||||||||||
w: |Trav’l-||||are||up-||ful||||home;|in||
w: |Soon||||and|||||||||||
w: |Rest||||èd|||||||||||
 x6 | x6 | x6 | x6 | x6 | x6 | x6 | G3- G2 |] %24
w: ||||||||
w: ||||||||
w: ||||||||
w: ||||||||
V:3
 [G,,G,]2 [G,,G,] [G,,G,]2 [G,,G,] | [G,,G,]2 [G,,G,] [G,,G,]3 | [D,F,]2 [D,F,] [D,F,]3 | %3
 G,2 G, G,3 | [G,,G,]2 [G,,G,] [G,,G,]2 [G,,G,] | (G,,B,,)[D,F,] (G,B,D) | %6
 [D,C]2 [D,C] [D,D]2 [D,C] | [G,B,]6 || [D,A,]3 [D,D]3 | [D,D]2 [D,C] [G,B,]3 | %10
 [D,D]2 [D,D] [D,D]2 [D,D] | [G,D]3 [G,B,]3 | [D,A,]3 [D,D]3 | [D,D]2 [D,C] [G,B,]3 | %14
 [G,D]2 [E,E] [A,E]2 [A,E] | [D,D]3- [D,D]2 [F,D] | [G,D]2 [G,D] [G,D]2 [G,C] | %17
 [G,B,]3- [G,B,]2 [G,B,] | [D,A,]2 [D,A,] [D,A,]2 [D,G,] | [D,F,]3- [D,F,]2 [D,F,] | %20
 G,2 G, G,2 [B,,G,] | [C,G,] [C,G,]3 z [C,C] | [D,B,]2 [D,B,] [D,D]2 [D,C] | [G,,B,]3- [G,,B,]2 |] %24
V:4
 x6 | x6 | x6 | G,2 G, G,3 | x6 | G,2 G,3 x | x6 | x6 || x6 | x6 | x6 | x6 | x6 | x6 | x6 | x6 | %16
 x6 | x6 | x6 | x6 | G,2 G, G,2 x | x6 | x6 | x5 |] %24

